web/packages/design/src/ResourceIcon/assets/microsoftpowerpoint.svg

<svg width="72" height="72" viewBox="0 0 72 72" fill="none" xmlns="http://www.w3.org/2000/svg">
<g clip-path="url(#clip0_8803_4755)">
<path d="M43.5351 39.347L38.5118 2.50977H38.1367C19.8709 2.56309 5.07676 17.3572 5.02344 35.623V35.9981L43.5351 39.347Z" fill="#ED6C47"/>
<path d="M38.8868 2.50977H38.5117V35.9981L55.2559 42.6958L72.0001 35.9981V35.6231C71.9468 17.3572 57.1526 2.56309 38.8868 2.50977Z" fill="#FF8F6B"/>
<path d="M72.0002 35.998V36.3664C71.9478 54.6363 57.1501 69.434 38.8802 69.4864H38.1434C19.8735 69.434 5.07586 54.6363 5.02344 36.3664V35.998H72.0002Z" fill="#D35230"/>
<path opacity="0.1" d="M40.1863 18.9695V54.7016C40.1779 55.9432 39.4255 57.0586 38.2774 57.5313C37.9119 57.6859 37.519 57.7657 37.1221 57.7657H12.9267C12.4579 57.2299 12.0058 56.6606 11.5872 56.0913C7.32127 50.4006 5.01793 43.4788 5.02348 36.3667V35.6299C5.01369 29.2149 6.88851 22.9384 10.4151 17.5797C10.7835 17.0104 11.1686 16.4411 11.5872 15.9053H37.1221C38.8091 15.9181 40.1735 17.2825 40.1863 18.9695Z" fill="black"/>
<path opacity="0.2" d="M38.5119 20.6438V56.3759C38.5118 56.7728 38.4321 57.1657 38.2775 57.5312C37.8047 58.6793 36.6893 59.4317 35.4477 59.4401H14.4505C13.9207 58.9022 13.4124 58.3436 12.9267 57.7656C12.4579 57.2298 12.0058 56.6605 11.5872 56.0912C7.32127 50.4005 5.01793 43.4787 5.02348 36.3666V35.6298C5.01369 29.2148 6.88851 22.9383 10.4151 17.5796H35.4477C37.1347 17.5923 38.4991 18.9568 38.5119 20.6438Z" fill="black"/>
<path opacity="0.2" d="M38.5118 20.6438V53.027C38.4991 54.714 37.1347 56.0784 35.4477 56.0912H11.5872C7.32127 50.4005 5.01793 43.4787 5.02348 36.3666V35.6298C5.01369 29.2148 6.88851 22.9383 10.4151 17.5796H35.4476C37.1347 17.5923 38.4991 18.9567 38.5118 20.6438Z" fill="black"/>
<path opacity="0.2" d="M36.8374 20.6438V53.027C36.8247 54.714 35.4602 56.0784 33.7733 56.0912H11.5872C7.32127 50.4005 5.01793 43.4787 5.02348 36.3666V35.6298C5.01369 29.2148 6.88851 22.9383 10.4151 17.5796H33.7732C35.4602 17.5923 36.8247 18.9567 36.8374 20.6438Z" fill="black"/>
<path d="M3.06919 17.5796H33.768C35.4631 17.5796 36.8372 18.9537 36.8372 20.6488V51.3476C36.8372 53.0427 35.463 54.4168 33.768 54.4168H3.06919C1.37415 54.4168 0 53.0427 0 51.3476V20.6488C0 18.9537 1.37415 17.5796 3.06919 17.5796Z" fill="url(#paint0_linear_8803_4755)"/>
<path d="M18.7533 25.7657C20.7517 25.6309 22.7329 26.2114 24.3426 27.4033C25.6851 28.6019 26.4024 30.3509 26.2882 32.1469C26.3102 33.3955 25.9774 34.6247 25.3288 35.6917C24.6721 36.7404 23.7259 37.5766 22.6045 38.0995C21.3225 38.6958 19.9208 38.9902 18.5072 38.9602H14.6242V46.1769H10.6475V25.7657H18.7533ZM14.6209 35.8424H18.0434C19.1284 35.9221 20.205 35.601 21.0691 34.9399C21.7838 34.2543 22.1584 33.2875 22.0922 32.2993C22.0922 30.05 20.785 28.9254 18.1707 28.9254H14.6209V35.8424H14.6209Z" fill="white"/>
</g>
<defs>
<linearGradient id="paint0_linear_8803_4755" x1="6.39937" y1="15.1814" x2="30.4378" y2="56.815" gradientUnits="userSpaceOnUse">
<stop stop-color="#CA4C28"/>
<stop offset="0.5" stop-color="#C5401E"/>
<stop offset="1" stop-color="#B62F14"/>
</linearGradient>
<clipPath id="clip0_8803_4755">
<rect width="72" height="72" fill="white"/>
</clipPath>
</defs>
</svg>

<svg xmlns="http://www.w3.org/2000/svg" width="72" height="72" fill="none" viewBox="0 0 72 72"><g clip-path="url(#clip0_8803_4755)"><path fill="#ed6c47" d="M43.535 39.347 38.512 2.51h-.375C19.87 2.563 5.077 17.357 5.023 35.623v.375z"/><path fill="#ff8f6b" d="M38.887 2.51h-.375v33.488l16.744 6.698L72 35.998v-.375C71.947 17.357 57.153 2.563 38.887 2.51"/><path fill="#d35230" d="M72 35.998v.368c-.052 18.27-14.85 33.068-33.12 33.12h-.737c-18.27-.052-33.067-14.85-33.12-33.12v-.368z"/><path fill="#000" d="M40.186 18.97v35.732a3.08 3.08 0 0 1-1.909 2.83 3 3 0 0 1-1.155.234H12.927a26 26 0 0 1-1.34-1.675 32.84 32.84 0 0 1-6.564-19.724v-.737a32.74 32.74 0 0 1 5.392-18.05 23 23 0 0 1 1.172-1.675h25.535a3.09 3.09 0 0 1 3.064 3.065" opacity=".1"/><path fill="#000" d="M38.512 20.644v35.732c0 .397-.08.79-.234 1.155a3.08 3.08 0 0 1-2.83 1.91H14.45a29 29 0 0 1-1.523-1.675 26 26 0 0 1-1.34-1.675 32.84 32.84 0 0 1-6.564-19.724v-.737a32.74 32.74 0 0 1 5.392-18.05h25.033a3.09 3.09 0 0 1 3.064 3.064" opacity=".2"/><path fill="#000" d="M38.512 20.644v32.383a3.09 3.09 0 0 1-3.064 3.064h-23.86a32.84 32.84 0 0 1-6.565-19.724v-.737a32.74 32.74 0 0 1 5.392-18.05h25.033a3.087 3.087 0 0 1 3.064 3.064" opacity=".2"/><path fill="#000" d="M36.837 20.644v32.383a3.09 3.09 0 0 1-3.064 3.064H11.587a32.84 32.84 0 0 1-6.564-19.724v-.737a32.74 32.74 0 0 1 5.392-18.05h23.358a3.087 3.087 0 0 1 3.064 3.064" opacity=".2"/><path fill="url(#paint0_linear_8803_4755)" d="M3.07 17.58h30.698a3.07 3.07 0 0 1 3.07 3.069v30.699a3.07 3.07 0 0 1-3.07 3.069H3.069A3.07 3.07 0 0 1 0 51.347V20.65a3.07 3.07 0 0 1 3.07-3.07"/><path fill="#fff" d="M18.753 25.766a8.44 8.44 0 0 1 5.59 1.637 5.86 5.86 0 0 1 1.945 4.744 6.6 6.6 0 0 1-.96 3.545 6.4 6.4 0 0 1-2.723 2.407 9.25 9.25 0 0 1-4.098.861h-3.883v7.217h-3.976V25.766zm-4.132 10.076h3.422a4.44 4.44 0 0 0 3.026-.902 3.35 3.35 0 0 0 1.023-2.64q0-3.375-3.921-3.375h-3.55z"/></g><defs><linearGradient id="paint0_linear_8803_4755" x1="6.399" x2="30.438" y1="15.181" y2="56.815" gradientUnits="userSpaceOnUse"><stop stop-color="#ca4c28"/><stop offset=".5" stop-color="#c5401e"/><stop offset="1" stop-color="#b62f14"/></linearGradient><clipPath id="clip0_8803_4755"><path fill="#fff" d="M0 0h72v72H0z"/></clipPath></defs></svg>
